packages/dnb-eufemia/assets/icons/calendar_medium.svg

<svg width="24" height="24" viewBox="0 0 24 24" fill="none" xmlns="http://www.w3.org/2000/svg">
<path d="M7.25 1C7.25 0.585786 6.91421 0.25 6.5 0.25C6.08579 0.25 5.75 0.585786 5.75 1H7.25ZM5.75 6C5.75 6.41421 6.08579 6.75 6.5 6.75C6.91421 6.75 7.25 6.41421 7.25 6H5.75ZM18.25 1C18.25 0.585786 17.9142 0.25 17.5 0.25C17.0858 0.25 16.75 0.585786 16.75 1H18.25ZM16.75 6C16.75 6.41421 17.0858 6.75 17.5 6.75C17.9142 6.75 18.25 6.41421 18.25 6H16.75ZM2.5 23.25H21.5V21.75H2.5V23.25ZM5.75 1V6H7.25V1H5.75ZM16.75 1V6H18.25V1H16.75ZM21.5 2.75H2.5V4.25H21.5V2.75ZM0.75 4.5V9.5H2.25V4.5H0.75ZM0.75 9.5V21.5H2.25V9.5H0.75ZM23.25 21.5V9.5H21.75V21.5H23.25ZM23.25 9.5V4.5H21.75V9.5H23.25ZM22.5 8.75H1.5V10.25H22.5V8.75ZM21.5 4.25C21.6381 4.25 21.75 4.36193 21.75 4.5H23.25C23.25 3.5335 22.4665 2.75 21.5 2.75V4.25ZM21.5 23.25C22.4665 23.25 23.25 22.4665 23.25 21.5H21.75C21.75 21.6381 21.6381 21.75 21.5 21.75V23.25ZM2.5 21.75C2.36193 21.75 2.25 21.6381 2.25 21.5H0.75C0.75 22.4665 1.5335 23.25 2.5 23.25V21.75ZM2.5 2.75C1.5335 2.75 0.75 3.5335 0.75 4.5H2.25C2.25 4.36193 2.36193 4.25 2.5 4.25V2.75Z" fill="black"/>
</svg>

<svg width="24" height="24" viewBox="0 0 24 24" fill="none" xmlns="http://www.w3.org/2000/svg"><path d="M7.25 1a.75.75 0 0 0-1.5 0h1.5Zm-1.5 5a.75.75 0 0 0 1.5 0h-1.5Zm12.5-5a.75.75 0 0 0-1.5 0h1.5Zm-1.5 5a.75.75 0 0 0 1.5 0h-1.5ZM2.5 23.25h19v-1.5h-19v1.5ZM5.75 1v5h1.5V1h-1.5Zm11 0v5h1.5V1h-1.5Zm4.75 1.75h-19v1.5h19v-1.5ZM.75 4.5v5h1.5v-5H.75Zm0 5v12h1.5v-12H.75Zm22.5 12v-12h-1.5v12h1.5Zm0-12v-5h-1.5v5h1.5Zm-.75-.75h-21v1.5h21v-1.5Zm-1-4.5a.25.25 0 0 1 .25.25h1.5a1.75 1.75 0 0 0-1.75-1.75v1.5Zm0 19a1.75 1.75 0 0 0 1.75-1.75h-1.5a.25.25 0 0 1-.25.25v1.5Zm-19-1.5a.25.25 0 0 1-.25-.25H.75c0 .966.784 1.75 1.75 1.75v-1.5Zm0-19A1.75 1.75 0 0 0 .75 4.5h1.5a.25.25 0 0 1 .25-.25v-1.5Z" fill="#000"/></svg>
